brandFactory_export/3.Masa/Correcto_3Masa.svg

<?xml version="1.0" encoding="UTF-8"?>
<svg width="24px" height="24px" viewBox="0 0 24 24" version="1.1" xmlns="http://www.w3.org/2000/svg" xmlns:xlink="http://www.w3.org/1999/xlink">
    <title>3.Masa/Correcto_3Masa</title>
    <g id="Symbols" stroke="none" stroke-width="1" fill="none" fill-rule="evenodd">
        <g id="3.Masa/Correcto_3Masa" fill="#5CB615" fill-rule="nonzero">
            <path d="M20.4773109,2.91092437 C18.4739496,0.981512605 15.5596639,0.00336134454 11.8117647,0.00336134454 C8.06386555,0.00336134454 5.14957983,0.981512605 3.14957983,2.91428571 C1.07226891,4.91764706 0.0201680672,7.9092437 0.0201680672,11.805042 C0.0201680672,15.7008403 1.07226891,18.6890756 3.14957983,20.692437 C5.14957983,22.6218487 8.06386555,23.6 11.8117647,23.6 C15.5596639,23.6 18.4739496,22.6218487 20.4773109,20.692437 C22.5546218,18.6890756 23.610084,15.7008403 23.610084,11.805042 C23.610084,7.9092437 22.5579832,4.91428571 20.4773109,2.91092437 Z M17.5159664,7.49243697 L10.5915966,16.7563025 C10.4773109,16.9109244 10.2991597,17.0016807 10.107563,17.005042 L10.097479,17.005042 C9.9092437,17.005042 9.73109244,16.9210084 9.61344538,16.7731092 L6.44705882,12.789916 C6.23529412,12.5243697 6.2789916,12.1344538 6.54453782,11.9226891 C6.81008403,11.7109244 7.2,11.7546218 7.41176471,12.0201681 L10.0806723,15.3747899 L16.5243697,6.74957983 C16.7294118,6.47731092 17.1159664,6.42016807 17.3882353,6.62521008 C17.6638655,6.83361345 17.7176471,7.22016807 17.5159664,7.49243697 L17.5159664,7.49243697 Z" id="Correcto_3Masa"></path>
        </g>
    </g>
</svg>

<svg width="24" height="24" viewBox="0 0 24 24" xmlns="http://www.w3.org/2000/svg"><path d="M20.477 2.91C18.474.983 15.56.004 11.812.004 8.064.003 5.15.982 3.15 2.914 1.072 4.918.02 7.91.02 11.805s1.052 6.884 3.13 8.887c2 1.93 4.914 2.908 8.662 2.908 3.748 0 6.662-.978 8.665-2.908 2.078-2.003 3.133-4.991 3.133-8.887 0-3.896-1.052-6.89-3.133-8.894zm-2.961 4.582l-6.924 9.264a.613.613 0 01-.484.249h-.01a.617.617 0 01-.485-.232L6.447 12.79a.619.619 0 01.098-.867.619.619 0 01.867.097l2.669 3.355 6.443-8.625a.617.617 0 01.864-.125c.276.209.33.595.128.867z" fill="#5CB615" fill-rule="nonzero"/></svg>
